X: 40926
T: Trip To Berkeley
R: jig
M: 6/8
K: Dmajor
|:FAA FAA|dcd e2d|caa aba|ged cAG|
FAA FAA|dcd e2f|ged cag|1 fdc d2A|2 fdc d2e:|
faa aba|faa a2f|gBB BcB|Ace aeg|
faa aba|faa aef|ged cag|fdc deg|
faa aba|faa a2f|gBB BcB|cBA GFE
FAA FAA|dcd e2f|ged cag|fdc d3||

